X:227
T: Bar Fast the Door O!
N: O'Farrell's Pocket Companion v.3 (Sky ed. p.111)
N: "Irish"
M: 3/4
R: waltz
L: 1/4
Q: 150
K: G
D>E| GGB| d2d| d>e d/B/| d2e| dBd| def| g3|
B2B| gfg| agf| edB| d2e| dBG| GeB| A3 |
G2 (3d/e/f/| gfg| a b/a/g/f/| edB| d2e|
d<B G/A/| GeB| A3| G :|
